svgs/thin/train-tram.svg

<svg xmlns="http://www.w3.org/2000/svg" viewBox="0 0 448 512"><!--! Font Awesome Pro 6.3.0 by @fontawesome - https://fontawesome.com License - https://fontawesome.com/license (Commercial License) Copyright 2023 Fonticons, Inc. --><path d="M192 352C192 369.7 177.7 384 160 384C142.3 384 128 369.7 128 352C128 334.3 142.3 320 160 320C177.7 320 192 334.3 192 352zM160 336C151.2 336 144 343.2 144 352C144 360.8 151.2 368 160 368C168.8 368 176 360.8 176 352C176 343.2 168.8 336 160 336zM256 352C256 334.3 270.3 320 288 320C305.7 320 320 334.3 320 352C320 369.7 305.7 384 288 384C270.3 384 256 369.7 256 352zM288 368C296.8 368 304 360.8 304 352C304 343.2 296.8 336 288 336C279.2 336 272 343.2 272 352C272 360.8 279.2 368 288 368zM128 192C128 174.3 142.3 160 160 160H288C305.7 160 320 174.3 320 192V224C320 241.7 305.7 256 288 256H160C142.3 256 128 241.7 128 224V192zM144 192V224C144 232.8 151.2 240 160 240H288C296.8 240 304 232.8 304 224V192C304 183.2 296.8 176 288 176H160C151.2 176 144 183.2 144 192zM78.76 16C61.75 16 45.66 23.73 35.03 37.02L22.25 52.1C19.49 56.45 14.45 57.01 11 54.25C7.552 51.49 6.993 46.45 9.753 43L22.54 27.02C36.2 9.943 56.89 0 78.76 0H369.2C391.1 0 411.8 9.942 425.5 27.02L438.2 43C441 46.45 440.4 51.49 436.1 54.25C433.5 57.01 428.5 56.45 425.8 52.1L412.1 37.02C402.3 23.73 386.3 16 369.2 16H232V96H288C341 96 384 138.1 384 192V352C384 383.8 368.6 411.1 344.8 429.4L413.7 498.3C416.8 501.5 416.8 506.5 413.7 509.7C410.5 512.8 405.5 512.8 402.3 509.7L330.7 438C317.8 444.4 303.3 448 288 448H160C144.7 448 130.2 444.4 117.3 438L45.66 509.7C42.53 512.8 37.47 512.8 34.34 509.7C31.22 506.5 31.22 501.5 34.34 498.3L103.2 429.4C79.45 411.1 64 383.8 64 352V192C64 138.1 106.1 96 160 96H216V16H78.76zM160 112C115.8 112 80 147.8 80 192V352C80 396.2 115.8 432 160 432H288C332.2 432 368 396.2 368 352V192C368 147.8 332.2 112 288 112H160z"/></svg>

<svg xmlns="http://www.w3.org/2000/svg" viewBox="0 0 448 512"><!--! Font Awesome Pro 6.4.0 by @fontawesome - https://fontawesome.com License - https://fontawesome.com/license (Commercial License) Copyright 2023 Fonticons, Inc. --><path d="M78.8 16c-17 0-33.1 7.7-43.7 21L22.2 53c-2.8 3.5-7.8 4-11.2 1.2S7 46.5 9.8 43L22.5 27C36.2 9.9 56.9 0 78.8 0H369.2c21.9 0 42.6 9.9 56.2 27l12.8 16c2.8 3.4 2.2 8.5-1.2 11.2s-8.5 2.2-11.2-1.2L413 37c-10.6-13.3-26.7-21-43.7-21H232V96h56c53 0 96 43 96 96V352c0 31.8-15.4 60-39.2 77.4l68.9 68.9c3.1 3.1 3.1 8.2 0 11.3s-8.2 3.1-11.3 0L330.7 438c-12.9 6.4-27.4 10-42.7 10H160c-15.3 0-29.8-3.6-42.7-10L45.7 509.7c-3.1 3.1-8.2 3.1-11.3 0s-3.1-8.2 0-11.3l68.9-68.9C79.4 412 64 383.8 64 352V192c0-53 43-96 96-96h56V16H78.8zM216 112H160c-44.2 0-80 35.8-80 80V352c0 44.2 35.8 80 80 80H288c44.2 0 80-35.8 80-80V192c0-44.2-35.8-80-80-80H232 216zM176 352a16 16 0 1 0 -32 0 16 16 0 1 0 32 0zm-48 0a32 32 0 1 1 64 0 32 32 0 1 1 -64 0zm160 16a16 16 0 1 0 0-32 16 16 0 1 0 0 32zm0-48a32 32 0 1 1 0 64 32 32 0 1 1 0-64zM160 176c-8.8 0-16 7.2-16 16v32c0 8.8 7.2 16 16 16H288c8.8 0 16-7.2 16-16V192c0-8.8-7.2-16-16-16H160zm-32 16c0-17.7 14.3-32 32-32H288c17.7 0 32 14.3 32 32v32c0 17.7-14.3 32-32 32H160c-17.7 0-32-14.3-32-32V192z"/></svg>
